src/xmb/retrosystem/core-disk-options.svg

<?xml version="1.0" encoding="UTF-8" standalone="no"?>
<svg
   xmlns:dc="http://purl.org/dc/elements/1.1/"
   xmlns:cc="http://creativecommons.org/ns#"
   xmlns:rdf="http://www.w3.org/1999/02/22-rdf-syntax-ns#"
   xmlns:svg="http://www.w3.org/2000/svg"
   xmlns="http://www.w3.org/2000/svg"
   xmlns:sodipodi="http://sodipodi.sourceforge.net/DTD/sodipodi-0.dtd"
   xmlns:inkscape="http://www.inkscape.org/namespaces/inkscape"
   version="1.1"
   id="Calque_1"
   x="0px"
   y="0px"
   width="64px"
   height="64px"
   viewBox="0 0 64 64"
   enable-background="new 0 0 64 64"
   xml:space="preserve"
   inkscape:version="0.92.3 (2405546, 2018-03-11)"
   sodipodi:docname="core-disk-options.svg"><metadata
     id="metadata16"><rdf:RDF><cc:Work
         rdf:about=""><dc:format>image/svg+xml</dc:format><dc:type
           rdf:resource="http://purl.org/dc/dcmitype/StillImage" /></cc:Work></rdf:RDF></metadata><defs
     id="defs14" /><sodipodi:namedview
     pagecolor="#ffffff"
     bordercolor="#666666"
     borderopacity="1"
     objecttolerance="10"
     gridtolerance="10"
     guidetolerance="10"
     inkscape:pageopacity="0"
     inkscape:pageshadow="2"
     inkscape:window-width="1920"
     inkscape:window-height="1001"
     id="namedview12"
     showgrid="false"
     inkscape:zoom="10.429825"
     inkscape:cx="30.5325"
     inkscape:cy="26.935225"
     inkscape:window-x="-9"
     inkscape:window-y="-9"
     inkscape:window-maximized="1"
     inkscape:current-layer="Calque_1" /><path
     sodipodi:nodetypes="csssccsssc"
     inkscape:connector-curvature="0"
     d="m 32,40.000691 c -3.30938,0 -8.00069,-4.692001 -8.00069,-8.00069 0,-3.308689 4.69131,-8.000689 8.00069,-8.000689 3.30869,0 8.000001,4.692 8.000001,8.000689 0,3.308689 -4.691311,8.00069 -8.000001,8.00069 m 0,-24.00069 c -8.837378,0 -15.999999,7.163311 -15.999999,16 C 16.000001,40.836692 23.162622,48 32,48 c 8.83462,0 16.000001,-7.163308 16.000001,-15.999999 0,-8.836689 -7.165381,-16 -16.000001,-16"
     style="fill:none;fill-opacity:1;fill-rule:nonzero;stroke:#1a1a1a;stroke-width:0.99999988"
     id="path814" /><g
     id="g946"
     transform="matrix(0.13793104,0,0,0.13793104,27.586206,27.586207)"
     style="stroke-width:7.24999952;fill:#e6e6e6"><path
       inkscape:connector-curvature="0"
       d="m 32.000002,75.504993 c -23.9930065,0 -43.505008,-19.516996 -43.505008,-43.504996 0,-23.9879899 19.5120015,-43.50499 43.505008,-43.50499 23.987999,0 43.499999,19.5170001 43.499999,43.50499 0,23.988 -19.512,43.504996 -43.499999,43.504996 m 0,-159.504986 c -64.070998,0 -115.999998,51.934 -115.999998,115.99999 0,64.066006 51.929,115.999993 115.999998,115.999993 C 96.050992,147.99999 148,96.066003 148,31.999997 148,-32.065993 96.050992,-83.999993 32.000002,-83.999993"
       style="fill:#e6e6e6;fill-opacity:1;fill-rule:nonzero;stroke:none;stroke-width:7.24999905"
       id="path38" /><path
       inkscape:connector-curvature="0"
       d="m 32.002245,45.776009 c -7.596001,0 -13.786001,-6.17601 -13.786001,-13.776005 0,-7.60401 6.19,-13.785 13.786001,-13.785 7.6,0 13.777,6.18099 13.777,13.785 0,7.599995 -6.177,13.776005 -13.777,13.776005 m 7.49e-4,-59.776005 c -25.3639945,0 -46.002997,20.6509905 -46.002997,46 0,25.349005 20.6390025,45.999991 46.002998,45.999991 25.337999,0 45.997009,-20.650986 45.997009,-45.999991 0,-25.3490095 -20.65901,-46 -45.997009,-46"
       style="fill:#e6e6e6;fill-opacity:0.49019608;fill-rule:nonzero;stroke:none;stroke-width:7.24999905"
       id="path84" /></g><circle
     style="opacity:1;vector-effect:none;fill:none;fill-opacity:1;fill-rule:nonzero;stroke:#1a1a1a;stroke-width:0.40000001;stroke-linecap:round;stroke-linejoin:round;stroke-miterlimit:4;stroke-dasharray:none;stroke-dashoffset:0;stroke-opacity:1;paint-order:markers stroke fill"
     id="path824"
     cx="32"
     cy="32"
     r="1.7497897" /></svg>

<svg xmlns="http://www.w3.org/2000/svg" xml:space="preserve" width="64" height="64"><path d="M32 40c-3.31 0-8-4.691-8-8s4.69-8 8-8 8 4.691 8 8-4.691 8-8 8m0-24c-8.837 0-16 7.163-16 16s7.163 16 16 16c8.835 0 16-7.163 16-16s-7.165-16-16-16" style="fill:none;fill-opacity:1;fill-rule:nonzero;stroke:#1a1a1a;stroke-width:.99999988"/><g style="stroke-width:7.24999952;fill:#e6e6e6"><path d="M32 75.505C8.007 75.505-11.505 55.988-11.505 32S8.007-11.505 32-11.505c23.988 0 43.5 19.517 43.5 43.505S55.988 75.505 32 75.505M32-84C-32.071-84-84-32.066-84 32s51.929 116 116 116c64.051 0 116-51.934 116-116S96.051-84 32-84" style="fill:#e6e6e6;fill-opacity:1;fill-rule:nonzero;stroke:none;stroke-width:7.24999905" transform="translate(27.586 27.586)scale(.13793)"/><path d="M32.002 45.776c-7.596 0-13.786-6.176-13.786-13.776 0-7.604 6.19-13.785 13.786-13.785 7.6 0 13.777 6.181 13.777 13.785 0 7.6-6.177 13.776-13.777 13.776M32.003-14C6.639-14-14 6.651-14 32S6.639 78 32.003 78C57.341 78 78 57.349 78 32S57.341-14 32.003-14" style="fill:#e6e6e6;fill-opacity:.49019608;fill-rule:nonzero;stroke:none;stroke-width:7.24999905" transform="translate(27.586 27.586)scale(.13793)"/></g><circle cx="32" cy="32" r="1.75" style="opacity:1;vector-effect:none;fill:none;fill-opacity:1;fill-rule:nonzero;stroke:#1a1a1a;stroke-width:.40000001;stroke-linecap:round;stroke-linejoin:round;stroke-miterlimit:4;stroke-dasharray:none;stroke-dashoffset:0;stroke-opacity:1;paint-order:markers stroke fill"/></svg>
